packages/core/src/svgs/aergo.svg

<svg width="24" height="24" viewBox="0 0 24 24" fill="none" xmlns="http://www.w3.org/2000/svg">
<g clip-path="url(#clip0_31_5672)">
<path d="M0 0H24V24H0V0Z" fill="#F0F3FA"/>
<path d="M13.1701 9.87851C12.9086 9.83917 12.6417 9.85631 12.3874 9.92876C12.1331 10.0012 11.8973 10.1273 11.6958 10.2985C11.512 10.4769 11.3678 10.6919 11.2725 10.9297C11.1773 11.1674 11.1331 11.4226 11.1429 11.6785V14.1428H12.0001V11.6656C11.9908 11.4541 12.0561 11.2459 12.1845 11.0775C12.313 10.9092 12.4964 10.7912 12.7029 10.7442C12.9001 10.6928 13.0887 10.7228 13.2858 10.7399V9.89565L13.1701 9.87851Z" fill="url(#paint0_linear_31_5672)"/>
<path d="M20.1429 9.85736C19.8663 9.8517 19.5914 9.90235 19.335 10.0062C19.0786 10.1101 18.8461 10.2651 18.6514 10.4616C18.2452 10.8721 18.0121 11.4229 18 12.0002C18.0248 12.5722 18.2616 13.1146 18.6643 13.5216C18.8577 13.7174 19.0879 13.8731 19.3416 13.9797C19.5954 14.0864 19.8676 14.1419 20.1429 14.1431C20.6957 14.1431 21.2229 13.9202 21.6214 13.5216C22.0241 13.1146 22.2609 12.5722 22.2857 12.0002C22.2737 11.4229 22.0405 10.8721 21.6343 10.4616C21.4393 10.2658 21.2065 10.1117 20.9502 10.0085C20.6938 9.9054 20.4191 9.85543 20.1429 9.86165V9.85736ZM20.1429 13.2859C19.8019 13.2859 19.4748 13.1505 19.2337 12.9094C18.9926 12.6682 18.8571 12.3412 18.8571 12.0002C18.8571 11.6592 18.9926 11.3322 19.2337 11.0911C19.4748 10.85 19.8019 10.7145 20.1429 10.7145C20.8329 10.7145 21.4114 11.2116 21.4286 12.0002C21.4457 12.7888 20.8414 13.2859 20.1429 13.2859Z" fill="url(#paint1_linear_31_5672)"/>
<path d="M9.42847 12.9988C9.1911 13.2026 8.88354 13.3056 8.57132 13.286C8.22418 13.286 7.90704 13.0674 7.71418 12.8574L10.7142 11.6745V11.6617C10.6222 11.1526 10.3573 10.6908 9.96418 10.3545C9.58028 10.0259 9.08944 9.8491 8.58418 9.85739C8.3063 9.85155 8.03012 9.90209 7.77231 10.006C7.5145 10.1098 7.28042 10.2648 7.08418 10.4617C6.67604 10.8712 6.44123 11.4222 6.42847 12.0002C6.44123 12.5783 6.67604 13.1293 7.08418 13.5388C7.482 13.926 8.01407 14.1444 8.56916 14.1483C9.12425 14.1523 9.6594 13.9416 10.0628 13.5602L9.42847 12.9988ZM7.28561 12.116C7.28561 11.3102 7.87704 10.7017 8.57132 10.7145C8.92704 10.7145 9.38561 10.9288 9.62132 11.2074L7.28561 12.116C7.28561 12.1502 7.28561 12.086 7.28561 12.116Z" fill="url(#paint2_linear_31_5672)"/>
<path d="M6.00007 12.0216V12.0002C5.98692 11.4243 5.75383 10.8754 5.34864 10.4659C5.15452 10.2684 4.92213 10.1125 4.66568 10.0079C4.40924 9.90321 4.13413 9.852 3.85721 9.85736C3.58063 9.8517 3.30579 9.90235 3.0494 10.0062C2.793 10.1101 2.56042 10.2651 2.36578 10.4616C1.95959 10.8721 1.72641 11.4229 1.71436 12.0002C1.72641 12.5776 1.95959 13.1283 2.36578 13.5388C2.56078 13.7346 2.79353 13.8888 3.0499 13.9919C3.30628 14.095 3.58094 14.145 3.85721 14.1388L5.10436 14.1302H6.00007V12.0216ZM5.14293 13.2859H3.85721C3.51622 13.2859 3.18919 13.1505 2.94808 12.9094C2.70696 12.6682 2.5715 12.3412 2.5715 12.0002C2.5715 11.2716 3.12864 10.7016 3.85721 10.7145C4.19447 10.7262 4.51473 10.8655 4.75335 11.1041C4.99197 11.3427 5.13119 11.663 5.14293 12.0002V13.2859Z" fill="url(#paint3_linear_31_5672)"/>
<path d="M15.4928 10.7873C15.8228 10.7916 16.1399 10.9288 16.3799 11.173C16.495 11.2997 16.5837 11.448 16.6407 11.6094C16.6977 11.7708 16.7219 11.9419 16.712 12.1127C16.702 12.2836 16.658 12.4507 16.5826 12.6043C16.5072 12.7579 16.4019 12.8949 16.2728 13.0073L16.9028 13.6673C17.2678 13.336 17.5159 12.8955 17.6099 12.4116C17.6779 12.0488 17.6516 11.6747 17.5335 11.325C17.4155 10.9752 17.2096 10.6617 16.9356 10.4144C16.6616 10.1671 16.3287 9.99425 15.9687 9.91247C15.6088 9.83069 15.2339 9.84269 14.8799 9.94734C14.5157 10.0502 14.1814 10.2473 13.9114 10.5216L14.5714 11.2202C14.6828 11.0788 14.8285 10.963 14.9871 10.8902C15.1457 10.8173 15.3171 10.7831 15.4928 10.7873Z" fill="#FF33B2"/>
<path d="M16.9029 13.6716L16.2729 13.0073C16.1915 13.0802 16.1101 13.1488 16.0158 13.2088C15.6772 13.4016 15.3258 13.5688 14.9572 13.7016L14.0958 14.0488L13.9244 14.1173C13.4486 14.3059 12.6558 14.6145 12.2358 15.1973C11.9852 15.5069 11.8397 15.8881 11.8201 16.2859H12.7501C12.7629 16.0288 12.8486 15.9516 12.9901 15.733C13.2472 15.373 13.9072 15.1159 14.2629 14.9788L14.5501 14.863L15.4158 14.5159C15.7758 14.3659 16.1315 14.1902 16.4701 13.993C16.6244 13.903 16.7701 13.7959 16.8986 13.6716H16.9029Z" fill="url(#paint4_linear_31_5672)"/>
<path d="M15.6858 15.0172C15.6173 14.8801 15.523 14.7086 15.4158 14.5158L14.9573 13.7015C14.8973 13.5901 14.4044 12.9258 14.3144 12.2401C14.2715 11.8758 14.3658 11.5115 14.5715 11.2201L13.9115 10.5215C13.6948 10.7659 13.5345 11.055 13.4419 11.3683C13.3494 11.6816 13.3268 12.0114 13.3758 12.3343C13.4615 13.2258 14.053 13.9801 14.0915 14.0486L14.5501 14.8629L14.8715 15.4458C15.043 15.7543 15.1458 15.9258 15.1544 16.2858H16.0844C16.072 15.8347 15.9356 15.3958 15.6901 15.0172H15.6858Z" fill="url(#paint5_linear_31_5672)"/>
</g>
<defs>
<linearGradient id="paint0_linear_31_5672" x1="13.9201" y1="13.8428" x2="9.49294" y2="12.6556" gradientUnits="userSpaceOnUse">
<stop offset="0.25" stop-color="#A9A9A9"/>
<stop offset="0.76" stop-color="#595959"/>
</linearGradient>
<linearGradient id="paint1_linear_31_5672" x1="22.2171" y1="14.1816" x2="18.0771" y2="9.83165" gradientUnits="userSpaceOnUse">
<stop stop-color="#D2D2D2"/>
<stop offset="0.25" stop-color="#A9A9A9"/>
<stop offset="0.76" stop-color="#595959"/>
<stop offset="1" stop-color="#393939"/>
</linearGradient>
<linearGradient id="paint2_linear_31_5672" x1="10.6328" y1="14.1431" x2="6.6299" y2="9.96024" gradientUnits="userSpaceOnUse">
<stop stop-color="#D2D2D2"/>
<stop offset="0.25" stop-color="#A9A9A9"/>
<stop offset="0.76" stop-color="#595959"/>
<stop offset="1" stop-color="#393939"/>
</linearGradient>
<linearGradient id="paint3_linear_31_5672" x1="6.21007" y1="14.4731" x2="1.90721" y2="9.95165" gradientUnits="userSpaceOnUse">
<stop stop-color="#D2D2D2"/>
<stop offset="0.25" stop-color="#A9A9A9"/>
<stop offset="0.76" stop-color="#595959"/>
<stop offset="1" stop-color="#393939"/>
</linearGradient>
<linearGradient id="paint4_linear_31_5672" x1="14.0958" y1="19.9073" x2="14.3015" y2="11.9659" gradientUnits="userSpaceOnUse">
<stop offset="0.25" stop-color="#A9A9A9"/>
<stop offset="0.76" stop-color="#595959"/>
<stop offset="1" stop-color="#393939"/>
</linearGradient>
<linearGradient id="paint5_linear_31_5672" x1="14.7173" y1="16.3115" x2="14.7173" y2="10.8515" gradientUnits="userSpaceOnUse">
<stop stop-color="#D2D2D2"/>
<stop offset="0.25" stop-color="#A9A9A9"/>
<stop offset="0.76" stop-color="#595959"/>
<stop offset="1" stop-color="#393939"/>
</linearGradient>
<clipPath id="clip0_31_5672">
<rect width="24" height="24" fill="white"/>
</clipPath>
</defs>
</svg>

<svg xmlns="http://www.w3.org/2000/svg" width="24" height="24" fill="none" viewBox="0 0 24 24"><g clip-path="url(#a)"><path fill="#F0F3FA" d="M0 0h24v24H0z"/><path fill="url(#b)" d="M13.17 9.879a1.85 1.85 0 0 0-1.474.42 1.83 1.83 0 0 0-.553 1.38v2.464H12v-2.477a.905.905 0 0 1 .703-.922c.197-.051.386-.021.583-.004v-.844z"/><path fill="url(#c)" d="M20.143 9.857a2.04 2.04 0 0 0-1.492.605c-.406.41-.639.96-.651 1.538.025.572.262 1.115.664 1.522a2.1 2.1 0 0 0 1.479.621c.553 0 1.08-.223 1.478-.621.403-.407.64-.95.665-1.522a2.25 2.25 0 0 0-.652-1.538 2.04 2.04 0 0 0-1.491-.6zm0 3.429a1.286 1.286 0 1 1 0-2.572c.69 0 1.268.498 1.286 1.286.017.789-.588 1.286-1.286 1.286"/><path fill="url(#d)" d="M9.428 12.999a1.2 1.2 0 0 1-.857.287c-.347 0-.664-.219-.857-.429l3-1.182v-.013a2.25 2.25 0 0 0-.75-1.308 2.07 2.07 0 0 0-1.38-.497 2.06 2.06 0 0 0-1.5.605A2.25 2.25 0 0 0 6.428 12a2.25 2.25 0 0 0 .656 1.539 2.15 2.15 0 0 0 2.979.021zm-2.142-.883c0-.806.591-1.414 1.285-1.402.356 0 .815.215 1.05.493zc0 .034 0-.03 0 0"/><path fill="url(#e)" d="M6 12.022V12a2.25 2.25 0 0 0-.651-1.534 2.04 2.04 0 0 0-1.492-.609 2.04 2.04 0 0 0-1.491.605c-.406.41-.64.96-.652 1.538.012.578.246 1.128.652 1.539a2.04 2.04 0 0 0 1.491.6l1.247-.009H6zm-.857 1.264H3.857A1.286 1.286 0 0 1 2.571 12c0-.728.558-1.298 1.286-1.286A1.333 1.333 0 0 1 5.143 12z"/><path fill="#FF33B2" d="M15.493 10.787c.33.005.647.142.887.386a1.286 1.286 0 0 1-.107 1.834l.63.66c.365-.331.613-.771.707-1.255a2.155 2.155 0 0 0-2.73-2.465c-.364.103-.699.3-.969.575l.66.698c.112-.141.258-.257.416-.33a1.14 1.14 0 0 1 .506-.103"/><path fill="url(#f)" d="m16.903 13.672-.63-.665a2 2 0 0 1-.257.202 7 7 0 0 1-1.059.493l-.861.347-.172.068c-.475.189-1.268.497-1.688 1.08-.25.31-.396.691-.416 1.089h.93c.013-.257.099-.334.24-.553.257-.36.917-.617 1.273-.754l.287-.116.866-.347c.36-.15.715-.326 1.054-.523.154-.09.3-.197.429-.321z"/><path fill="url(#g)" d="M15.686 15.017a14 14 0 0 0-.27-.501l-.459-.815c-.06-.11-.553-.775-.643-1.46a1.47 1.47 0 0 1 .258-1.02l-.66-.7a2.23 2.23 0 0 0-.536 1.813c.085.892.677 1.646.716 1.715l.458.814.321.583c.172.308.275.48.283.84h.93a2.46 2.46 0 0 0-.394-1.269z"/></g><defs><linearGradient id="b" x1="13.92" x2="9.493" y1="13.843" y2="12.656" gradientUnits="userSpaceOnUse"><stop offset=".25" stop-color="#A9A9A9"/><stop offset=".76" stop-color="#595959"/></linearGradient><linearGradient id="c" x1="22.217" x2="18.077" y1="14.182" y2="9.832" gradientUnits="userSpaceOnUse"><stop stop-color="#D2D2D2"/><stop offset=".25" stop-color="#A9A9A9"/><stop offset=".76" stop-color="#595959"/><stop offset="1" stop-color="#393939"/></linearGradient><linearGradient id="d" x1="10.633" x2="6.63" y1="14.143" y2="9.96" gradientUnits="userSpaceOnUse"><stop stop-color="#D2D2D2"/><stop offset=".25" stop-color="#A9A9A9"/><stop offset=".76" stop-color="#595959"/><stop offset="1" stop-color="#393939"/></linearGradient><linearGradient id="e" x1="6.21" x2="1.907" y1="14.473" y2="9.952" gradientUnits="userSpaceOnUse"><stop stop-color="#D2D2D2"/><stop offset=".25" stop-color="#A9A9A9"/><stop offset=".76" stop-color="#595959"/><stop offset="1" stop-color="#393939"/></linearGradient><linearGradient id="f" x1="14.096" x2="14.302" y1="19.907" y2="11.966" gradientUnits="userSpaceOnUse"><stop offset=".25" stop-color="#A9A9A9"/><stop offset=".76" stop-color="#595959"/><stop offset="1" stop-color="#393939"/></linearGradient><linearGradient id="g" x1="14.717" x2="14.717" y1="16.311" y2="10.851" gradientUnits="userSpaceOnUse"><stop stop-color="#D2D2D2"/><stop offset=".25" stop-color="#A9A9A9"/><stop offset=".76" stop-color="#595959"/><stop offset="1" stop-color="#393939"/></linearGradient><clipPath id="a"><path fill="#fff" d="M0 0h24v24H0z"/></clipPath></defs></svg>
